svgs/sharp-light/burger-cheese.svg

<svg xmlns="http://www.w3.org/2000/svg" viewBox="0 0 512 512"><!--! Font Awesome Pro 6.6.0 by @fontawesome - https://fontawesome.com License - https://fontawesome.com/license (Commercial License) Copyright 2024 Fonticons, Inc. --><path d="M477.7 224C462.2 115.4 368.8 32 256 32S49.8 115.4 34.3 224c-1.5 10.5-2.3 21.1-2.3 32l32 0 160 0 14.5 0 162.9 0 14.5 0 32 0 32 0c0-10.9-.8-21.5-2.3-32zM448 352l-17.5 0-48 32 65.5 0 0 64L64 448l0-64 193.5 0-48-32L64 352l-32 0 0 32 0 64 0 32 32 0 384 0 32 0 0-32 0-64 0-32-32 0zm-2.7-128L66.7 224C81.9 133.2 160.9 64 256 64s174.1 69.2 189.3 160zM160 160a16 16 0 1 0 0-32 16 16 0 1 0 0 32zm112-48a16 16 0 1 0 -32 0 16 16 0 1 0 32 0zm80 48a16 16 0 1 0 0-32 16 16 0 1 0 0 32zM32 288l-16 0 0 32 16 0 187.2 0 92 61.3 8.9 5.9 8.9-5.9 92-61.3 59.2 0 16 0 0-32-16 0-64 0-4.8 0-4 2.7L320 348.8l-87.1-58.1-4-2.7-4.8 0L32 288z"/></svg>

<svg xmlns="http://www.w3.org/2000/svg" viewBox="0 0 512 512"><!--! Font Awesome Pro 6.4.0 by @fontawesome - https://fontawesome.com License - https://fontawesome.com/license (Commercial License) Copyright 2023 Fonticons, Inc. --><path d="M477.7 224C462.2 115.4 368.8 32 256 32S49.8 115.4 34.3 224c-1.5 10.5-2.3 21.1-2.3 32H64 224h14.5H401.5 416h32 32c0-10.9-.8-21.5-2.3-32zM448 352H430.5l-48 32H448v64H64V384H257.5l-48-32H64 32v32 64 32H64 448h32V448 384 352H448zm-2.7-128H66.7C81.9 133.2 160.9 64 256 64s174.1 69.2 189.3 160zM160 160a16 16 0 1 0 0-32 16 16 0 1 0 0 32zm112-48a16 16 0 1 0 -32 0 16 16 0 1 0 32 0zm80 48a16 16 0 1 0 0-32 16 16 0 1 0 0 32zM32 288H16v32H32 219.2l92 61.3 8.9 5.9 8.9-5.9 92-61.3H480h16V288H480 416h-4.8l-4 2.7L320 348.8l-87.1-58.1-4-2.7H224 32z"/></svg>
